src/assets/pencil-edit-icon.svg

<svg width="27" height="27" viewBox="0 0 27 27" fill="none" xmlns="http://www.w3.org/2000/svg">
<path d="M1.43216 18.4815L0.0404282 24.8636C-0.0225668 25.1531 -0.0118018 25.4538 0.0717341 25.738C0.15527 26.0222 0.308892 26.2809 0.518452 26.4901C0.730895 26.694 0.989313 26.8436 1.27181 26.9263C1.5543 27.009 1.85254 27.0223 2.14126 26.9651L8.50197 25.5682C8.83225 25.4956 9.13471 25.3295 9.37335 25.0897L25.4498 8.99482C25.9412 8.50286 26.3311 7.91879 26.5971 7.27597C26.8631 6.63314 27 5.94416 27 5.24836C27 4.55257 26.8631 3.86358 26.5971 3.22076C26.3311 2.57794 25.9412 1.99387 25.4498 1.50191C24.4422 0.53794 23.1022 0 21.7085 0C20.3148 0 18.9748 0.53794 17.9672 1.50191L1.91548 17.6126C1.67456 17.8499 1.50681 18.1515 1.43216 18.4815ZM20.4614 4.00072C20.797 3.67886 21.2437 3.49918 21.7085 3.49918C22.1732 3.49918 22.62 3.67886 22.9556 4.00072C23.2819 4.33383 23.4647 4.78179 23.4647 5.24836C23.4647 5.71494 23.2819 6.1629 22.9556 6.496L21.7085 7.74453L19.2143 5.24748L20.4614 4.00072ZM4.76245 19.7424L16.7113 7.74983L19.1808 10.2345L7.22666 22.2306L4.06041 22.9264L4.76245 19.7424Z" fill="#A4A4A4"/>
</svg>

<svg width="27" height="27" fill="none" xmlns="http://www.w3.org/2000/svg"><path d="M1.432 18.482L.04 24.864a1.768 1.768 0 00.478 1.626 1.83 1.83 0 001.623.475l6.361-1.397c.33-.072.633-.239.871-.478L25.45 8.995a5.3 5.3 0 000-7.493 5.412 5.412 0 00-7.483 0L1.915 17.612c-.24.238-.408.54-.483.87zM20.462 4a1.802 1.802 0 012.494 0 1.783 1.783 0 010 2.495l-1.247 1.249-2.495-2.498L20.461 4zm-15.7 15.741L16.712 7.75l2.469 2.485L7.227 22.23l-3.167.695.702-3.184z" fill="#A4A4A4"/></svg>
